; generated by Slic3r 1.37.2.1-prusa3d-win64 on 2019-05-10 at 14:16:33

; 

; external perimeters extrusion width = 0.42mm
; perimeters extrusion width = 0.45mm
; infill extrusion width = 0.45mm
; solid infill extrusion width = 0.45mm
; top infill extrusion width = 0.42mm
; first layer extrusion width = 0.42mm

M107 ; disable fan
M115 U3.1.0 ; tell printer latest fw version
M83  ; extruder relative mode
M104 S215 ; set extruder temp
M140 S55 ; set bed temp
M190 S55 ; wait for bed temp
M109 S215 ; wait for extruder temp
G28 W ; home all without mesh bed level
G80 ; mesh bed leveling
G1 Y-3.0 F1000.0 ; go outside pritn area
G1 X60.0 E9.0  F1000.0 ; intro line
G1 X100.0 E12.5  F1000.0 ; intro line
G92 E0.0
M900 K30
G21 ; set units to millimeters
G90 ; use absolute coordinates
M83 ; use relative distances for extrusion
;BEFORE_LAYER_CHANGE
;0.2


G1 E-0.80000 F2100.00000 ; retract
G1 Z0.600 F7200.000 ; lift Z
;AFTER_LAYER_CHANGE
;0.2
G1 X197.730 Y47.330 F7200.000 ; move to first skirt point
G1 Z0.200 F7200.000 ; restore layer Z
G1 E0.80000 F2100.00000 ; unretract
M204 S1000 ; adjust acceleration
G1 F1800
G1 X199.105 Y48.237 E0.05165 ; skirt
G1 X200.064 Y49.617 E0.05271 ; skirt
G1 X200.420 Y51.143 E0.04913 ; skirt
G1 X200.432 Y93.513 E1.32847 ; skirt
G1 X195.660 Y158.840 E2.05374 ; skirt
G1 X195.447 Y159.959 E0.03571 ; skirt
G1 X195.274 Y160.442 E0.01609 ; skirt
G1 X194.607 Y161.468 E0.03836 ; skirt
G1 X194.168 Y161.914 E0.01965 ; skirt
G1 X192.926 Y162.685 E0.04580 ; skirt
G1 X191.320 Y163.001 E0.05133 ; skirt
G1 X55.918 Y163.002 E4.24542 ; skirt
G1 X54.627 Y162.865 E0.04072 ; skirt
G1 X53.301 Y162.422 E0.04384 ; skirt
G1 X52.198 Y161.777 E0.04005 ; skirt
G1 X51.432 Y161.129 E0.03147 ; skirt
G1 X50.759 Y160.330 E0.03275 ; skirt
G1 X49.998 Y158.915 E0.05037 ; skirt
G1 X49.690 Y157.873 E0.03406 ; skirt
G1 X49.568 Y156.650 E0.03855 ; skirt
G1 X49.568 Y53.345 E3.23906 ; skirt
G1 X49.706 Y52.049 E0.04084 ; skirt
G1 X50.158 Y50.707 E0.04441 ; skirt
G1 X50.656 Y49.812 E0.03211 ; skirt
G1 X51.280 Y49.037 E0.03118 ; skirt
G1 X52.245 Y48.185 E0.04037 ; skirt
G1 X53.656 Y47.427 E0.05023 ; skirt
G1 X54.702 Y47.120 E0.03419 ; skirt
G1 X55.924 Y46.998 E0.03849 ; skirt
G1 X196.059 Y46.998 E4.39383 ; skirt
G1 X197.671 Y47.318 E0.05153 ; skirt
G1 F5760
G1 X199.105 Y48.237 E-0.58989 ; wipe and retract
G1 F5760
G1 X199.385 Y48.640 E-0.17011 ; wipe and retract
G1 E-0.04000 F2100.00000 ; retract
G1 Z0.800 F7200.000 ; lift Z
G1 X197.066 Y57.164 F7200.000 ; move to first perimeter point
G1 Z0.200 F7200.000 ; restore layer Z
G1 E0.80000 F2100.00000 ; unretract
G1 F1800
G1 X197.066 Y93.516 E1.13979 ; perimeter
G1 X196.782 Y94.201 E0.02325 ; perimeter
G1 X196.097 Y94.485 E0.02325 ; perimeter
G1 X190.551 Y94.485 E0.17389 ; perimeter
G1 X189.368 Y94.724 E0.03785 ; perimeter
G1 X188.419 Y95.363 E0.03587 ; perimeter
G1 X187.780 Y96.312 E0.03587 ; perimeter
G1 X187.541 Y97.495 E0.03785 ; perimeter
G1 X187.541 Y112.567 E0.47257 ; perimeter
G1 X187.257 Y113.251 E0.02322 ; perimeter
G1 X186.573 Y113.535 E0.02322 ; perimeter
G1 X185.789 Y113.535 E0.02458 ; perimeter
G1 X184.606 Y113.774 E0.03785 ; perimeter
G1 X183.657 Y114.413 E0.03587 ; perimeter
G1 X183.018 Y115.362 E0.03587 ; perimeter
G1 X182.778 Y116.546 E0.03789 ; perimeter
G1 X182.778 Y131.554 E0.47056 ; perimeter
G1 X183.018 Y132.737 E0.03785 ; perimeter
G1 X183.657 Y133.686 E0.03587 ; perimeter
G1 X184.606 Y134.325 E0.03587 ; perimeter
G1 X185.789 Y134.565 E0.03785 ; perimeter
G1 X191.335 Y134.565 E0.17388 ; perimeter
G1 X192.020 Y134.848 E0.02324 ; perimeter
G1 X192.303 Y135.533 E0.02324 ; perimeter
G1 X192.303 Y152.835 E0.54248 ; perimeter
G1 X59.735 Y152.835 E4.15658 ; perimeter
G1 X59.735 Y57.164 E2.99970 ; perimeter
G1 X197.006 Y57.164 E4.30404 ; perimeter
G1 X197.458 Y57.083 F7200.000 ; move inwards before travel
G1 F5760
G1 X197.010 Y59.358 E-0.76000 ; wipe and retract
G1 E-0.04000 F2100.00000 ; retract
G1 Z0.800 F7200.000 ; lift Z
G1 X124.184 Y155.035 F7200.000 ; move to first perimeter point
G1 Z0.200 F7200.000 ; restore layer Z
G1 E0.80000 F2100.00000 ; unretract
G1 F1800
G1 X124.666 Y155.752 E0.02710 ; perimeter
G1 X124.843 Y156.625 E0.02792 ; perimeter
G1 X124.666 Y157.498 E0.02792 ; perimeter
G1 X124.184 Y158.215 E0.02710 ; perimeter
G1 X123.467 Y158.697 E0.02710 ; perimeter
G1 X122.594 Y158.874 E0.02792 ; perimeter
G1 X121.721 Y158.697 E0.02792 ; perimeter
G1 X121.004 Y158.215 E0.02710 ; perimeter
G1 X120.522 Y157.498 E0.02710 ; perimeter
G1 X120.345 Y156.625 E0.02792 ; perimeter
G1 X120.522 Y155.752 E0.02792 ; perimeter
G1 X121.004 Y155.035 E0.02710 ; perimeter
G1 X121.721 Y154.553 E0.02710 ; perimeter
G1 X122.594 Y154.376 E0.02792 ; perimeter
G1 X123.467 Y154.553 E0.02792 ; perimeter
G1 X124.134 Y155.002 E0.02522 ; perimeter
G1 X123.912 Y155.307 F7200.000 ; move to first perimeter point
G1 F1800
G1 X124.312 Y155.900 E0.02243 ; perimeter
G1 X124.458 Y156.625 E0.02318 ; perimeter
G1 X124.312 Y157.350 E0.02318 ; perimeter
G1 X123.912 Y157.943 E0.02243 ; perimeter
G1 X123.319 Y158.343 E0.02243 ; perimeter
G1 X122.594 Y158.489 E0.02318 ; perimeter
G1 X121.869 Y158.343 E0.02318 ; perimeter
G1 X121.276 Y157.943 E0.02243 ; perimeter
G1 X120.876 Y157.350 E0.02243 ; perimeter
G1 X120.730 Y156.625 E0.02318 ; perimeter
G1 X120.876 Y155.900 E0.02318 ; perimeter
G1 X121.276 Y155.307 E0.02243 ; perimeter
G1 X121.869 Y154.907 E0.02243 ; perimeter
G1 X122.594 Y154.761 E0.02318 ; perimeter
G1 X123.319 Y154.907 E0.02318 ; perimeter
G1 X123.863 Y155.273 E0.02055 ; perimeter
G1 X124.298 Y155.202 F7200.000 ; move inwards before travel
G1 F5760
G1 X124.312 Y155.900 E-0.26717 ; wipe and retract
G1 F5760
G1 X124.458 Y156.625 E-0.25605 ; wipe and retract
G1 F5760
G1 X124.323 Y157.295 E-0.23678 ; wipe and retract
G1 E-0.04000 F2100.00000 ; retract
G1 Z0.800 F7200.000 ; lift Z
G1 X58.794 Y156.025 F7200.000 ; move to first perimeter point
G1 Z0.200 F7200.000 ; restore layer Z
G1 E0.80000 F2100.00000 ; unretract
G1 F1800
G1 X58.617 Y156.898 E0.02792 ; perimeter
G1 X58.135 Y157.615 E0.02710 ; perimeter
G1 X57.418 Y158.097 E0.02710 ; perimeter
G1 X56.545 Y158.274 E0.02792 ; perimeter
G1 X55.672 Y158.097 E0.02792 ; perimeter
G1 X54.955 Y157.615 E0.02710 ; perimeter
G1 X54.473 Y156.898 E0.02710 ; perimeter
G1 X54.296 Y156.025 E0.02792 ; perimeter
G1 X54.473 Y155.152 E0.02792 ; perimeter
G1 X54.955 Y154.435 E0.02710 ; perimeter
G1 X55.672 Y153.953 E0.02710 ; perimeter
G1 X56.545 Y153.776 E0.02792 ; perimeter
G1 X57.418 Y153.953 E0.02792 ; perimeter
G1 X58.135 Y154.435 E0.02710 ; perimeter
G1 X58.617 Y155.152 E0.02710 ; perimeter
G1 X58.782 Y155.966 E0.02604 ; perimeter
G1 X58.409 Y156.025 F7200.000 ; move to first perimeter point
G1 F1800
G1 X58.263 Y156.750 E0.02318 ; perimeter
G1 X57.863 Y157.343 E0.02243 ; perimeter
G1 X57.270 Y157.743 E0.02243 ; perimeter
G1 X56.545 Y157.889 E0.02318 ; perimeter
G1 X55.820 Y157.743 E0.02318 ; perimeter
G1 X55.227 Y157.343 E0.02243 ; perimeter
G1 X54.827 Y156.750 E0.02243 ; perimeter
G1 X54.681 Y156.025 E0.02318 ; perimeter
G1 X54.827 Y155.300 E0.02318 ; perimeter
G1 X55.227 Y154.707 E0.02243 ; perimeter
G1 X55.820 Y154.307 E0.02243 ; perimeter
G1 X56.545 Y154.161 E0.02318 ; perimeter
G1 X57.270 Y154.307 E0.02318 ; perimeter
G1 X57.863 Y154.707 E0.02243 ; perimeter
G1 X58.263 Y155.300 E0.02243 ; perimeter
G1 X58.397 Y155.966 E0.02130 ; perimeter
G1 X58.755 Y156.226 F7200.000 ; move inwards before travel
G1 F5760
G1 X58.263 Y156.750 E-0.27531 ; wipe and retract
G1 F5760
G1 X57.863 Y157.343 E-0.24781 ; wipe and retract
G1 F5760
G1 X57.296 Y157.725 E-0.23688 ; wipe and retract
G1 E-0.04000 F2100.00000 ; retract
G1 Z0.800 F7200.000 ; lift Z
G1 X55.945 Y107.249 F7200.000 ; move to first perimeter point
G1 Z0.200 F7200.000 ; restore layer Z
G1 E0.80000 F2100.00000 ; unretract
G1 F1800
G1 X55.072 Y107.072 E0.02792 ; perimeter
G1 X54.355 Y106.590 E0.02710 ; perimeter
G1 X53.873 Y105.873 E0.02710 ; perimeter
G1 X53.696 Y105.000 E0.02792 ; perimeter
G1 X53.873 Y104.127 E0.02792 ; perimeter
G1 X54.355 Y103.410 E0.02710 ; perimeter
G1 X55.072 Y102.928 E0.02710 ; perimeter
G1 X55.945 Y102.751 E0.02792 ; perimeter
G1 X56.818 Y102.928 E0.02792 ; perimeter
G1 X57.535 Y103.410 E0.02710 ; perimeter
G1 X58.017 Y104.127 E0.02710 ; perimeter
G1 X58.194 Y105.000 E0.02792 ; perimeter
G1 X58.017 Y105.873 E0.02792 ; perimeter
G1 X57.535 Y106.590 E0.02710 ; perimeter
G1 X56.818 Y107.072 E0.02710 ; perimeter
G1 X56.004 Y107.237 E0.02604 ; perimeter
G1 X55.945 Y106.864 F7200.000 ; move to first perimeter point
G1 F1800
G1 X55.220 Y106.718 E0.02318 ; perimeter
G1 X54.627 Y106.318 E0.02243 ; perimeter
G1 X54.227 Y105.725 E0.02243 ; perimeter
G1 X54.081 Y105.000 E0.02318 ; perimeter
G1 X54.227 Y104.275 E0.02318 ; perimeter
G1 X54.627 Y103.682 E0.02243 ; perimeter
G1 X55.220 Y103.282 E0.02243 ; perimeter
G1 X55.945 Y103.136 E0.02318 ; perimeter
G1 X56.670 Y103.282 E0.02318 ; perimeter
G1 X57.263 Y103.682 E0.02243 ; perimeter
G1 X57.663 Y104.275 E0.02243 ; perimeter
G1 X57.809 Y105.000 E0.02318 ; perimeter
G1 X57.663 Y105.725 E0.02318 ; perimeter
G1 X57.263 Y106.318 E0.02243 ; perimeter
G1 X56.670 Y106.718 E0.02243 ; perimeter
G1 X56.004 Y106.852 E0.02130 ; perimeter
G1 X55.744 Y107.210 F7200.000 ; move inwards before travel
G1 F5760
G1 X55.220 Y106.718 E-0.27531 ; wipe and retract
G1 F5760
G1 X54.627 Y106.318 E-0.24781 ; wipe and retract
G1 F5760
G1 X54.245 Y105.751 E-0.23688 ; wipe and retract
G1 E-0.04000 F2100.00000 ; retract
G1 Z0.800 F7200.000 ; lift Z
G1 X56.545 Y56.224 F7200.000 ; move to first perimeter point
G1 Z0.200 F7200.000 ; restore layer Z
G1 E0.80000 F2100.00000 ; unretract
G1 F1800
G1 X55.672 Y56.047 E0.02792 ; perimeter
G1 X54.955 Y55.565 E0.02710 ; perimeter
G1 X54.473 Y54.848 E0.02710 ; perimeter
G1 X54.296 Y53.975 E0.02792 ; perimeter
G1 X54.473 Y53.102 E0.02792 ; perimeter
G1 X54.955 Y52.385 E0.02710 ; perimeter
G1 X55.672 Y51.903 E0.02710 ; perimeter
G1 X56.545 Y51.726 E0.02792 ; perimeter
G1 X57.418 Y51.903 E0.02792 ; perimeter
G1 X58.135 Y52.385 E0.02710 ; perimeter
G1 X58.617 Y53.102 E0.02710 ; perimeter
G1 X58.794 Y53.975 E0.02792 ; perimeter
G1 X58.617 Y54.848 E0.02792 ; perimeter
G1 X58.135 Y55.565 E0.02710 ; perimeter
G1 X57.418 Y56.047 E0.02710 ; perimeter
G1 X56.604 Y56.212 E0.02604 ; perimeter
G1 X56.545 Y55.839 F7200.000 ; move to first perimeter point
G1 F1800
G1 X55.820 Y55.693 E0.02318 ; perimeter
G1 X55.227 Y55.293 E0.02243 ; perimeter
G1 X54.827 Y54.700 E0.02243 ; perimeter
G1 X54.681 Y53.975 E0.02318 ; perimeter
G1 X54.827 Y53.250 E0.02318 ; perimeter
G1 X55.227 Y52.657 E0.02243 ; perimeter
G1 X55.820 Y52.257 E0.02243 ; perimeter
G1 X56.545 Y52.111 E0.02318 ; perimeter
G1 X57.270 Y52.257 E0.02318 ; perimeter
G1 X57.863 Y52.657 E0.02243 ; perimeter
G1 X58.263 Y53.250 E0.02243 ; perimeter
G1 X58.409 Y53.975 E0.02318 ; perimeter
G1 X58.263 Y54.700 E0.02318 ; perimeter
G1 X57.863 Y55.293 E0.02243 ; perimeter
G1 X57.270 Y55.693 E0.02243 ; perimeter
G1 X56.604 Y55.827 E0.02130 ; perimeter
G1 X56.344 Y56.185 F7200.000 ; move inwards before travel
G1 F5760
G1 X55.820 Y55.693 E-0.27531 ; wipe and retract
G1 F5760
G1 X55.227 Y55.293 E-0.24781 ; wipe and retract
G1 F5760
G1 X54.845 Y54.726 E-0.23688 ; wipe and retract
G1 E-0.04000 F2100.00000 ; retract
G1 Z0.800 F7200.000 ; lift Z
G1 X122.745 Y53.375 F7200.000 ; move to first perimeter point
G1 Z0.200 F7200.000 ; restore layer Z
G1 E0.80000 F2100.00000 ; unretract
G1 F1800
G1 X122.922 Y52.502 E0.02792 ; perimeter
G1 X123.404 Y51.785 E0.02710 ; perimeter
G1 X124.121 Y51.303 E0.02710 ; perimeter
G1 X124.994 Y51.126 E0.02792 ; perimeter
G1 X125.867 Y51.303 E0.02792 ; perimeter
G1 X126.584 Y51.785 E0.02710 ; perimeter
G1 X127.066 Y52.502 E0.02710 ; perimeter
G1 X127.243 Y53.375 E0.02792 ; perimeter
G1 X127.066 Y54.248 E0.02792 ; perimeter
G1 X126.584 Y54.965 E0.02710 ; perimeter
G1 X125.867 Y55.447 E0.02710 ; perimeter
G1 X124.994 Y55.624 E0.02792 ; perimeter
G1 X124.121 Y55.447 E0.02792 ; perimeter
G1 X123.404 Y54.965 E0.02710 ; perimeter
G1 X122.922 Y54.248 E0.02710 ; perimeter
G1 X122.757 Y53.434 E0.02604 ; perimeter
G1 X123.130 Y53.375 F7200.000 ; move to first perimeter point
G1 F1800
G1 X123.276 Y52.650 E0.02318 ; perimeter
G1 X123.676 Y52.057 E0.02243 ; perimeter
G1 X124.269 Y51.657 E0.02243 ; perimeter
G1 X124.994 Y51.511 E0.02318 ; perimeter
G1 X125.719 Y51.657 E0.02318 ; perimeter
G1 X126.312 Y52.057 E0.02243 ; perimeter
G1 X126.712 Y52.650 E0.02243 ; perimeter
G1 X126.858 Y53.375 E0.02318 ; perimeter
G1 X126.712 Y54.100 E0.02318 ; perimeter
G1 X126.312 Y54.693 E0.02243 ; perimeter
G1 X125.719 Y55.093 E0.02243 ; perimeter
G1 X124.994 Y55.239 E0.02318 ; perimeter
G1 X124.269 Y55.093 E0.02318 ; perimeter
G1 X123.676 Y54.693 E0.02243 ; perimeter
G1 X123.276 Y54.100 E0.02243 ; perimeter
G1 X123.142 Y53.434 E0.02130 ; perimeter
G1 X122.784 Y53.174 F7200.000 ; move inwards before travel
G1 F5760
G1 X123.276 Y52.650 E-0.27531 ; wipe and retract
G1 F5760
G1 X123.676 Y52.057 E-0.24781 ; wipe and retract
G1 F5760
G1 X124.243 Y51.675 E-0.23687 ; wipe and retract
G1 E-0.04000 F2100.00000 ; retract
G1 Z0.800 F7200.000 ; lift Z
G1 X191.804 Y53.375 F7200.000 ; move to first perimeter point
G1 Z0.200 F7200.000 ; restore layer Z
G1 E0.80000 F2100.00000 ; unretract
G1 F1800
G1 X191.981 Y52.502 E0.02793 ; perimeter
G1 X192.464 Y51.785 E0.02711 ; perimeter
G1 X193.180 Y51.303 E0.02706 ; perimeter
G1 X194.053 Y51.126 E0.02793 ; perimeter
G1 X194.926 Y51.303 E0.02792 ; perimeter
G1 X195.643 Y51.785 E0.02709 ; perimeter
G1 X196.126 Y52.502 E0.02713 ; perimeter
G1 X196.302 Y53.375 E0.02791 ; perimeter
G1 X196.126 Y54.248 E0.02791 ; perimeter
G1 X195.643 Y54.965 E0.02713 ; perimeter
G1 X194.926 Y55.447 E0.02709 ; perimeter
G1 X194.053 Y55.624 E0.02792 ; perimeter
G1 X193.180 Y55.447 E0.02793 ; perimeter
G1 X192.464 Y54.965 E0.02706 ; perimeter
G1 X191.981 Y54.248 E0.02711 ; perimeter
G1 X191.816 Y53.434 E0.02605 ; perimeter
G1 X192.189 Y53.375 F7200.000 ; move to first perimeter point
G1 F1800
G1 X192.335 Y52.650 E0.02318 ; perimeter
G1 X192.736 Y52.057 E0.02245 ; perimeter
G1 X193.328 Y51.657 E0.02240 ; perimeter
G1 X194.053 Y51.511 E0.02318 ; perimeter
G1 X194.778 Y51.657 E0.02318 ; perimeter
G1 X195.371 Y52.057 E0.02243 ; perimeter
G1 X195.772 Y52.650 E0.02246 ; perimeter
G1 X195.917 Y53.375 E0.02317 ; perimeter
G1 X195.772 Y54.100 E0.02317 ; perimeter
G1 X195.371 Y54.693 E0.02246 ; perimeter
G1 X194.778 Y55.093 E0.02243 ; perimeter
G1 X194.053 Y55.239 E0.02318 ; perimeter
G1 X193.328 Y55.093 E0.02318 ; perimeter
G1 X192.736 Y54.693 E0.02240 ; perimeter
G1 X192.335 Y54.100 E0.02245 ; perimeter
G1 X192.201 Y53.434 E0.02130 ; perimeter
G1 X191.843 Y53.174 F7200.000 ; move inwards before travel
G1 F5760
G1 X192.335 Y52.650 E-0.27536 ; wipe and retract
G1 F5760
G1 X192.736 Y52.057 E-0.24797 ; wipe and retract
G1 F5760
G1 X193.302 Y51.675 E-0.23667 ; wipe and retract
G1 E-0.04000 F2100.00000 ; retract
G1 Z0.800 F7200.000 ; lift Z
G1 X189.293 Y154.376 F7200.000 ; move to first perimeter point
G1 Z0.200 F7200.000 ; restore layer Z
G1 E0.80000 F2100.00000 ; unretract
G1 F1800
G1 X190.167 Y154.553 E0.02796 ; perimeter
G1 X190.883 Y155.035 E0.02706 ; perimeter
G1 X191.366 Y155.752 E0.02712 ; perimeter
G1 X191.542 Y156.625 E0.02791 ; perimeter
G1 X191.366 Y157.498 E0.02792 ; perimeter
G1 X190.883 Y158.215 E0.02712 ; perimeter
G1 X190.167 Y158.697 E0.02706 ; perimeter
G1 X189.293 Y158.874 E0.02796 ; perimeter
G1 X188.420 Y158.697 E0.02793 ; perimeter
G1 X187.704 Y158.215 E0.02706 ; perimeter
G1 X187.221 Y157.498 E0.02711 ; perimeter
G1 X187.044 Y156.625 E0.02793 ; perimeter
G1 X187.221 Y155.752 E0.02793 ; perimeter
