; generated by Slic3r 1.37.2.1-prusa3d on 2019-05-07 at 18:18:40

; 

; external perimeters extrusion width = 0.42mm
; perimeters extrusion width = 0.45mm
; infill extrusion width = 0.45mm
; solid infill extrusion width = 0.45mm
; top infill extrusion width = 0.42mm
; first layer extrusion width = 0.42mm

M107 ; disable fan
M115 U3.1.0 ; tell printer latest fw version
M83  ; extruder relative mode
M104 S215 ; set extruder temp
M140 S55 ; set bed temp
M190 S55 ; wait for bed temp
M109 S215 ; wait for extruder temp
G28 W ; home all without mesh bed level
G80 ; mesh bed leveling
G1 Y-3.0 F1000.0 ; go outside pritn area
G1 X60.0 E9.0  F1000.0 ; intro line
G1 X100.0 E12.5  F1000.0 ; intro line
G92 E0.0
M900 K30
G21 ; set units to millimeters
G90 ; use absolute coordinates
M83 ; use relative distances for extrusion
;BEFORE_LAYER_CHANGE
;0.2


G1 E-0.80000 F2100.00000 ; retract
G1 Z0.600 F7200.000 ; lift Z
;AFTER_LAYER_CHANGE
;0.2
G1 X54.712 Y47.307 F7200.000 ; move to first skirt point
G1 Z0.200 F7200.000 ; restore layer Z
G1 E0.80000 F2100.00000 ; unretract
M204 S1000 ; adjust acceleration
G1 F1800
G1 X56.308 Y46.998 E0.05098 ; skirt
G1 X205.969 Y46.998 E4.69250 ; skirt
G1 X207.231 Y47.125 E0.03978 ; skirt
G1 X208.431 Y47.492 E0.03934 ; skirt
G1 X209.519 Y48.080 E0.03876 ; skirt
G1 X210.466 Y48.857 E0.03843 ; skirt
G1 X211.253 Y49.810 E0.03874 ; skirt
G1 X211.840 Y50.892 E0.03861 ; skirt
G1 X212.211 Y52.086 E0.03919 ; skirt
G1 X212.341 Y53.301 E0.03831 ; skirt
G1 X212.341 Y156.686 E3.24157 ; skirt
G1 X212.203 Y157.954 E0.04000 ; skirt
G1 X211.752 Y159.294 E0.04431 ; skirt
G1 X211.257 Y160.182 E0.03189 ; skirt
G1 X210.616 Y160.979 E0.03206 ; skirt
G1 X209.597 Y161.866 E0.04235 ; skirt
G1 X208.234 Y162.578 E0.04821 ; skirt
G1 X207.212 Y162.880 E0.03342 ; skirt
G1 X205.982 Y163.002 E0.03876 ; skirt
G1 X51.552 Y163.002 E4.84204 ; skirt
G1 X50.282 Y162.792 E0.04037 ; skirt
G1 X49.771 Y162.619 E0.01692 ; skirt
G1 X48.702 Y161.927 E0.03991 ; skirt
G1 X48.223 Y161.436 E0.02154 ; skirt
G1 X47.487 Y160.217 E0.04463 ; skirt
G1 X37.878 Y132.898 E0.90802 ; skirt
G1 X37.658 Y131.606 E0.04108 ; skirt
G1 X37.660 Y116.414 E0.47636 ; skirt
G1 X52.165 Y50.061 E2.12957 ; skirt
G1 X52.503 Y49.278 E0.02673 ; skirt
G1 X53.067 Y48.459 E0.03119 ; skirt
G1 X53.515 Y48.037 E0.01929 ; skirt
G1 X54.661 Y47.339 E0.04207 ; skirt
G1 F5760
G1 X56.308 Y46.998 E-0.58273 ; wipe and retract
G1 F5760
G1 X56.820 Y46.998 E-0.17727 ; wipe and retract
G1 E-0.04000 F2100.00000 ; retract
G1 Z0.800 F7200.000 ; lift Z
G1 X53.560 Y154.376 F7200.000 ; move to first perimeter point
G1 Z0.200 F7200.000 ; restore layer Z
G1 E0.80000 F2100.00000 ; unretract
G1 F1800
G1 X54.434 Y154.552 E0.02795 ; perimeter
G1 X55.150 Y155.035 E0.02709 ; perimeter
G1 X55.633 Y155.751 E0.02709 ; perimeter
G1 X55.809 Y156.625 E0.02795 ; perimeter
G1 X55.633 Y157.498 E0.02792 ; perimeter
G1 X55.150 Y158.214 E0.02708 ; perimeter
G1 X54.434 Y158.697 E0.02707 ; perimeter
G1 X53.560 Y158.874 E0.02797 ; perimeter
G1 X52.687 Y158.697 E0.02794 ; perimeter
G1 X51.971 Y158.214 E0.02707 ; perimeter
G1 X51.488 Y157.498 E0.02707 ; perimeter
G1 X51.311 Y156.625 E0.02794 ; perimeter
G1 X51.488 Y155.751 E0.02797 ; perimeter
G1 X51.971 Y155.035 E0.02707 ; perimeter
G1 X52.687 Y154.552 E0.02708 ; perimeter
G1 X53.501 Y154.388 E0.02604 ; perimeter
G1 X53.560 Y154.761 F7200.000 ; move to first perimeter point
G1 F1800
G1 X54.286 Y154.906 E0.02321 ; perimeter
G1 X54.878 Y155.307 E0.02242 ; perimeter
G1 X55.279 Y155.899 E0.02242 ; perimeter
G1 X55.424 Y156.625 E0.02321 ; perimeter
G1 X55.279 Y157.350 E0.02317 ; perimeter
G1 X54.878 Y157.942 E0.02242 ; perimeter
G1 X54.286 Y158.343 E0.02242 ; perimeter
G1 X53.560 Y158.489 E0.02322 ; perimeter
G1 X52.835 Y158.343 E0.02319 ; perimeter
G1 X52.243 Y157.942 E0.02242 ; perimeter
G1 X51.843 Y157.350 E0.02242 ; perimeter
G1 X51.696 Y156.625 E0.02319 ; perimeter
G1 X51.842 Y155.899 E0.02322 ; perimeter
G1 X52.243 Y155.307 E0.02242 ; perimeter
G1 X52.835 Y154.906 E0.02242 ; perimeter
G1 X53.501 Y154.773 E0.02129 ; perimeter
G1 X53.760 Y154.415 F7200.000 ; move inwards before travel
G1 F5760
G1 X54.286 Y154.906 E-0.27563 ; wipe and retract
G1 F5760
G1 X54.878 Y155.307 E-0.24770 ; wipe and retract
G1 F5760
G1 X55.261 Y155.873 E-0.23666 ; wipe and retract
G1 E-0.04000 F2100.00000 ; retract
G1 Z0.800 F7200.000 ; lift Z
G1 X50.173 Y153.212 F7200.000 ; move to first perimeter point
G1 Z0.200 F7200.000 ; restore layer Z
G1 E0.80000 F2100.00000 ; unretract
G1 F1800
G1 X63.195 Y153.212 E0.40830 ; perimeter
G1 X63.195 Y160.038 E0.21402 ; perimeter
G1 X51.619 Y160.038 E0.36297 ; perimeter
G1 X51.013 Y159.916 E0.01937 ; perimeter
G1 X50.569 Y159.616 E0.01679 ; perimeter
G1 X50.270 Y159.172 E0.01678 ; perimeter
G1 X50.148 Y158.566 E0.01938 ; perimeter
G1 X50.148 Y135.516 E0.72273 ; perimeter
G1 X49.955 Y134.565 E0.03043 ; perimeter
G1 X49.398 Y133.738 E0.03126 ; perimeter
G1 X48.570 Y133.180 E0.03131 ; perimeter
G1 X47.620 Y132.988 E0.03040 ; perimeter
G1 X42.094 Y132.988 E0.17326 ; perimeter
G1 X41.966 Y132.962 E0.00410 ; perimeter
G1 X47.501 Y132.962 E0.17357 ; perimeter
G1 X48.575 Y133.179 E0.03434 ; perimeter
G1 X49.400 Y133.736 E0.03121 ; perimeter
G1 X49.957 Y134.561 E0.03121 ; perimeter
G1 X50.173 Y135.634 E0.03431 ; perimeter
G1 X50.173 Y153.152 E0.54928 ; perimeter
G1 F5760
G1 X52.367 Y153.162 E-0.76000 ; wipe and retract
G1 E-0.04000 F2100.00000 ; retract
G1 Z0.800 F7200.000 ; lift Z
G1 X41.873 Y132.943 F7200.000 ; move to first perimeter point
G1 Z0.200 F7200.000 ; restore layer Z
G1 E0.80000 F2100.00000 ; unretract
G1 F1800
G1 X41.488 Y132.866 E0.01233 ; perimeter
G1 X41.176 Y132.655 E0.01181 ; perimeter
G1 X41.818 Y132.921 E0.02179 ; perimeter
G1 X40.955 Y132.434 F7200.000 ; move to first perimeter point
G1 F1800
G1 X40.744 Y132.122 E0.01181 ; perimeter
G1 X40.667 Y131.737 E0.01233 ; perimeter
G1 X40.932 Y132.379 E0.02179 ; perimeter
G1 X40.648 Y131.644 F7200.000 ; move to first perimeter point
G1 F1800
G1 X40.622 Y131.516 E0.00410 ; perimeter
G1 X40.622 Y116.583 E0.46824 ; perimeter
G1 X40.648 Y116.455 E0.00410 ; perimeter
G1 X40.648 Y131.584 E0.47439 ; perimeter
G1 F5760
G1 X40.622 Y131.516 E-0.02521 ; wipe and retract
G1 F5760
G1 X40.622 Y129.395 E-0.73479 ; wipe and retract
G1 E-0.04000 F2100.00000 ; retract
G1 Z0.800 F7200.000 ; lift Z
G1 X40.666 Y116.364 F7200.000 ; move to first perimeter point
G1 Z0.200 F7200.000 ; restore layer Z
G1 E0.80000 F2100.00000 ; unretract
G1 F1800
G1 X40.744 Y115.977 E0.01239 ; perimeter
G1 X40.956 Y115.663 E0.01187 ; perimeter
G1 X40.689 Y116.309 E0.02191 ; perimeter
G1 X41.173 Y115.446 F7200.000 ; move to first perimeter point
G1 F1800
G1 X41.488 Y115.234 E0.01190 ; perimeter
G1 X41.877 Y115.155 E0.01243 ; perimeter
G1 X41.229 Y115.423 E0.02198 ; perimeter
G1 X41.962 Y115.138 F7200.000 ; move to first perimeter point
G1 F1800
G1 X42.094 Y115.111 E0.00423 ; perimeter
G1 X42.857 Y115.111 E0.02391 ; perimeter
G1 X43.807 Y114.919 E0.03039 ; perimeter
G1 X44.635 Y114.362 E0.03129 ; perimeter
G1 X45.193 Y113.534 E0.03132 ; perimeter
G1 X45.385 Y112.584 E0.03040 ; perimeter
G1 X45.385 Y97.534 E0.47188 ; perimeter
G1 X45.410 Y97.410 E0.00394 ; perimeter
G1 X45.410 Y112.466 E0.47208 ; perimeter
G1 X45.194 Y113.540 E0.03434 ; perimeter
G1 X44.637 Y114.365 E0.03121 ; perimeter
G1 X43.812 Y114.922 E0.03121 ; perimeter
G1 X42.739 Y115.138 E0.03431 ; perimeter
G1 X42.022 Y115.138 E0.02250 ; perimeter
G1 F5760
G1 X42.094 Y115.111 E-0.02667 ; wipe and retract
G1 F5760
G1 X42.857 Y115.111 E-0.26415 ; wipe and retract
G1 F5760
G1 X43.807 Y114.919 E-0.33571 ; wipe and retract
G1 F5760
G1 X44.126 Y114.704 E-0.13348 ; wipe and retract
G1 E-0.04000 F2100.00000 ; retract
G1 Z0.800 F7200.000 ; lift Z
G1 X45.430 Y97.309 F7200.000 ; move to first perimeter point
G1 Z0.200 F7200.000 ; restore layer Z
G1 E0.80000 F2100.00000 ; unretract
G1 F1800
G1 X45.507 Y96.927 E0.01220 ; perimeter
G1 X45.719 Y96.614 E0.01184 ; perimeter
G1 X45.453 Y97.253 E0.02169 ; perimeter
G1 X45.938 Y96.395 F7200.000 ; move to first perimeter point
G1 F1800
G1 X46.250 Y96.184 E0.01182 ; perimeter
G1 X46.637 Y96.106 E0.01236 ; perimeter
G1 X45.993 Y96.372 E0.02184 ; perimeter
G1 F5760
G1 X46.250 Y96.184 E-0.11031 ; wipe and retract
G1 F5760
G1 X46.637 Y96.106 E-0.13659 ; wipe and retract
G1 F5760
G1 X45.993 Y96.372 E-0.24120 ; wipe and retract
G1 E-0.31190 F2100.00000 ; retract
G1 Z0.800 F7200.000 ; lift Z
G1 X203.716 Y105.000 F7200.000 ; move to first perimeter point
G1 Z0.200 F7200.000 ; restore layer Z
G1 E0.80000 F2100.00000 ; unretract
G1 F1800
G1 X203.893 Y104.127 E0.02792 ; perimeter
G1 X204.375 Y103.410 E0.02710 ; perimeter
G1 X205.092 Y102.928 E0.02710 ; perimeter
G1 X205.965 Y102.751 E0.02792 ; perimeter
G1 X206.838 Y102.928 E0.02792 ; perimeter
G1 X207.555 Y103.410 E0.02710 ; perimeter
G1 X208.037 Y104.127 E0.02710 ; perimeter
G1 X208.214 Y105.000 E0.02792 ; perimeter
G1 X208.037 Y105.873 E0.02792 ; perimeter
G1 X207.555 Y106.590 E0.02710 ; perimeter
G1 X206.838 Y107.072 E0.02710 ; perimeter
G1 X205.965 Y107.249 E0.02792 ; perimeter
G1 X205.092 Y107.072 E0.02792 ; perimeter
G1 X204.375 Y106.590 E0.02710 ; perimeter
G1 X203.893 Y105.873 E0.02710 ; perimeter
G1 X203.728 Y105.059 E0.02604 ; perimeter
G1 X204.101 Y105.000 F7200.000 ; move to first perimeter point
G1 F1800
G1 X204.247 Y104.275 E0.02318 ; perimeter
G1 X204.647 Y103.682 E0.02243 ; perimeter
G1 X205.240 Y103.282 E0.02243 ; perimeter
G1 X205.965 Y103.136 E0.02318 ; perimeter
G1 X206.690 Y103.282 E0.02318 ; perimeter
G1 X207.283 Y103.682 E0.02243 ; perimeter
G1 X207.683 Y104.275 E0.02243 ; perimeter
G1 X207.829 Y105.000 E0.02318 ; perimeter
G1 X207.683 Y105.725 E0.02318 ; perimeter
G1 X207.283 Y106.318 E0.02243 ; perimeter
G1 X206.690 Y106.718 E0.02243 ; perimeter
G1 X205.965 Y106.864 E0.02318 ; perimeter
G1 X205.240 Y106.718 E0.02318 ; perimeter
G1 X204.647 Y106.318 E0.02243 ; perimeter
G1 X204.247 Y105.725 E0.02243 ; perimeter
G1 X204.113 Y105.059 E0.02130 ; perimeter
G1 X203.755 Y104.799 F7200.000 ; move inwards before travel
G1 F5760
G1 X204.247 Y104.275 E-0.27531 ; wipe and retract
G1 F5760
G1 X204.647 Y103.682 E-0.24781 ; wipe and retract
G1 F5760
G1 X205.214 Y103.300 E-0.23688 ; wipe and retract
G1 E-0.04000 F2100.00000 ; retract
G1 Z0.800 F7200.000 ; lift Z
G1 X205.365 Y56.224 F7200.000 ; move to first perimeter point
G1 Z0.200 F7200.000 ; restore layer Z
G1 E0.80000 F2100.00000 ; unretract
G1 F1800
G1 X204.492 Y56.047 E0.02793 ; perimeter
G1 X203.775 Y55.564 E0.02709 ; perimeter
G1 X203.292 Y54.848 E0.02709 ; perimeter
G1 X203.116 Y53.975 E0.02792 ; perimeter
G1 X203.292 Y53.102 E0.02791 ; perimeter
G1 X203.775 Y52.385 E0.02712 ; perimeter
G1 X204.492 Y51.902 E0.02712 ; perimeter
G1 X205.365 Y51.726 E0.02791 ; perimeter
G1 X206.238 Y51.902 E0.02792 ; perimeter
G1 X206.954 Y52.385 E0.02709 ; perimeter
G1 X207.437 Y53.102 E0.02709 ; perimeter
G1 X207.614 Y53.975 E0.02793 ; perimeter
G1 X207.437 Y54.848 E0.02794 ; perimeter
G1 X206.954 Y55.564 E0.02707 ; perimeter
G1 X206.238 Y56.047 E0.02707 ; perimeter
G1 X205.424 Y56.212 E0.02606 ; perimeter
G1 X205.365 Y55.839 F7200.000 ; move to first perimeter point
G1 F1800
G1 X204.640 Y55.693 E0.02318 ; perimeter
G1 X204.047 Y55.292 E0.02244 ; perimeter
G1 X203.646 Y54.700 E0.02243 ; perimeter
G1 X203.501 Y53.975 E0.02318 ; perimeter
G1 X203.646 Y53.250 E0.02317 ; perimeter
G1 X204.047 Y52.657 E0.02245 ; perimeter
G1 X204.640 Y52.256 E0.02245 ; perimeter
G1 X205.365 Y52.111 E0.02317 ; perimeter
G1 X206.090 Y52.256 E0.02318 ; perimeter
G1 X206.682 Y52.657 E0.02243 ; perimeter
G1 X207.083 Y53.250 E0.02244 ; perimeter
G1 X207.229 Y53.975 E0.02318 ; perimeter
G1 X207.082 Y54.700 E0.02319 ; perimeter
G1 X206.682 Y55.292 E0.02242 ; perimeter
G1 X206.090 Y55.692 E0.02242 ; perimeter
G1 X205.424 Y55.827 E0.02131 ; perimeter
G1 X205.164 Y56.185 F7200.000 ; move inwards before travel
G1 F5760
G1 X204.640 Y55.693 E-0.27536 ; wipe and retract
G1 F5760
G1 X204.047 Y55.292 E-0.24792 ; wipe and retract
G1 F5760
G1 X203.664 Y54.726 E-0.23672 ; wipe and retract
G1 E-0.04000 F2100.00000 ; retract
G1 Z0.800 F7200.000 ; lift Z
G1 X134.092 Y53.375 F7200.000 ; move to first perimeter point
G1 Z0.200 F7200.000 ; restore layer Z
G1 E0.80000 F2100.00000 ; unretract
G1 F1800
G1 X133.915 Y54.248 E0.02794 ; perimeter
G1 X133.432 Y54.964 E0.02707 ; perimeter
G1 X132.716 Y55.447 E0.02707 ; perimeter
G1 X131.843 Y55.624 E0.02794 ; perimeter
G1 X130.969 Y55.447 E0.02797 ; perimeter
G1 X130.253 Y54.964 E0.02707 ; perimeter
G1 X129.770 Y54.248 E0.02708 ; perimeter
G1 X129.594 Y53.375 E0.02792 ; perimeter
G1 X129.770 Y52.501 E0.02795 ; perimeter
G1 X130.253 Y51.785 E0.02709 ; perimeter
G1 X130.969 Y51.302 E0.02709 ; perimeter
G1 X131.843 Y51.126 E0.02795 ; perimeter
G1 X132.716 Y51.302 E0.02792 ; perimeter
G1 X133.432 Y51.785 E0.02708 ; perimeter
G1 X133.915 Y52.501 E0.02707 ; perimeter
G1 X134.080 Y53.316 E0.02609 ; perimeter
G1 X133.707 Y53.375 F7200.000 ; move to first perimeter point
G1 F1800
G1 X133.560 Y54.100 E0.02319 ; perimeter
G1 X133.160 Y54.692 E0.02242 ; perimeter
G1 X132.568 Y55.092 E0.02242 ; perimeter
G1 X131.843 Y55.239 E0.02319 ; perimeter
G1 X131.117 Y55.093 E0.02322 ; perimeter
G1 X130.525 Y54.692 E0.02242 ; perimeter
G1 X130.124 Y54.100 E0.02242 ; perimeter
G1 X129.979 Y53.375 E0.02317 ; perimeter
G1 X130.124 Y52.649 E0.02321 ; perimeter
G1 X130.525 Y52.057 E0.02242 ; perimeter
G1 X131.117 Y51.656 E0.02242 ; perimeter
G1 X131.843 Y51.511 E0.02321 ; perimeter
G1 X132.568 Y51.656 E0.02317 ; perimeter
G1 X133.160 Y52.057 E0.02242 ; perimeter
G1 X133.561 Y52.649 E0.02242 ; perimeter
G1 X133.695 Y53.316 E0.02134 ; perimeter
G1 X134.053 Y53.576 F7200.000 ; move inwards before travel
G1 F5760
G1 X133.560 Y54.100 E-0.27539 ; wipe and retract
G1 F5760
G1 X133.160 Y54.692 E-0.24764 ; wipe and retract
G1 F5760
G1 X132.593 Y55.075 E-0.23698 ; wipe and retract
G1 E-0.04000 F2100.00000 ; retract
G1 Z0.800 F7200.000 ; lift Z
G1 X60.570 Y53.375 F7200.000 ; move to first perimeter point
G1 Z0.200 F7200.000 ; restore layer Z
G1 E0.80000 F2100.00000 ; unretract
G1 F1800
G1 X60.393 Y54.248 E0.02794 ; perimeter
G1 X59.910 Y54.964 E0.02707 ; perimeter
G1 X59.194 Y55.447 E0.02707 ; perimeter
G1 X58.321 Y55.624 E0.02794 ; perimeter
G1 X57.447 Y55.447 E0.02797 ; perimeter
G1 X56.731 Y54.964 E0.02707 ; perimeter
G1 X56.248 Y54.248 E0.02708 ; perimeter
G1 X56.072 Y53.375 E0.02792 ; perimeter
G1 X56.248 Y52.501 E0.02795 ; perimeter
G1 X56.731 Y51.785 E0.02709 ; perimeter
G1 X57.447 Y51.302 E0.02709 ; perimeter
G1 X58.321 Y51.126 E0.02795 ; perimeter
G1 X59.194 Y51.302 E0.02792 ; perimeter
G1 X59.910 Y51.785 E0.02708 ; perimeter
G1 X60.393 Y52.501 E0.02707 ; perimeter
G1 X60.558 Y53.316 E0.02609 ; perimeter
G1 X60.185 Y53.375 F7200.000 ; move to first perimeter point
G1 F1800
G1 X60.038 Y54.100 E0.02319 ; perimeter
G1 X59.638 Y54.692 E0.02242 ; perimeter
G1 X59.046 Y55.092 E0.02242 ; perimeter
G1 X58.321 Y55.239 E0.02319 ; perimeter
G1 X57.595 Y55.093 E0.02322 ; perimeter
G1 X57.003 Y54.692 E0.02242 ; perimeter
G1 X56.602 Y54.100 E0.02242 ; perimeter
G1 X56.457 Y53.375 E0.02317 ; perimeter
G1 X56.602 Y52.649 E0.02321 ; perimeter
G1 X57.003 Y52.057 E0.02242 ; perimeter
G1 X57.595 Y51.656 E0.02242 ; perimeter
G1 X58.321 Y51.511 E0.02321 ; perimeter
G1 X59.046 Y51.656 E0.02317 ; perimeter
G1 X59.638 Y52.057 E0.02242 ; perimeter
G1 X60.039 Y52.649 E0.02242 ; perimeter
G1 X60.173 Y53.316 E0.02134 ; perimeter
G1 X60.531 Y53.576 F7200.000 ; move inwards before travel
G1 F5760
G1 X60.038 Y54.100 E-0.27538 ; wipe and retract
G1 F5760
G1 X59.638 Y54.692 E-0.24764 ; wipe and retract
G1 F5760
G1 X59.071 Y55.075 E-0.23698 ; wipe and retract
G1 E-0.04000 F2100.00000 ; retract
G1 Z0.800 F7200.000 ; lift Z
G1 X204.375 Y113.036 F7200.000 ; move to first perimeter point
G1 Z0.200 F7200.000 ; restore layer Z
G1 E0.80000 F2100.00000 ; unretract
G1 F1800
G1 X202.552 Y113.036 E0.05716 ; perimeter
G1 X202.552 Y56.788 E1.76362 ; perimeter
G1 X54.937 Y56.788 E4.62837 ; perimeter
