; generated by Slic3r 1.37.2.1-prusa3d-win64 on 2019-05-10 at 14:17:39

; 

; external perimeters extrusion width = 0.42mm
; perimeters extrusion width = 0.45mm
; infill extrusion width = 0.45mm
; solid infill extrusion width = 0.45mm
; top infill extrusion width = 0.42mm
; first layer extrusion width = 0.42mm

M107 ; disable fan
M115 U3.1.0 ; tell printer latest fw version
M83  ; extruder relative mode
M104 S215 ; set extruder temp
M140 S55 ; set bed temp
M190 S55 ; wait for bed temp
M109 S215 ; wait for extruder temp
G28 W ; home all without mesh bed level
G80 ; mesh bed leveling
G1 Y-3.0 F1000.0 ; go outside pritn area
G1 X60.0 E9.0  F1000.0 ; intro line
G1 X100.0 E12.5  F1000.0 ; intro line
G92 E0.0
M900 K30
G21 ; set units to millimeters
G90 ; use absolute coordinates
M83 ; use relative distances for extrusion
;BEFORE_LAYER_CHANGE
;0.2


G1 E-0.80000 F2100.00000 ; retract
G1 Z0.600 F7200.000 ; lift Z
;AFTER_LAYER_CHANGE
;0.2
G1 X54.718 Y47.303 F7200.000 ; move to first skirt point
G1 Z0.200 F7200.000 ; restore layer Z
G1 E0.80000 F2100.00000 ; unretract
M204 S1000 ; adjust acceleration
G1 F1800
G1 X56.308 Y46.998 E0.05078 ; skirt
G1 X205.969 Y46.998 E4.69250 ; skirt
G1 X207.238 Y47.125 E0.04001 ; skirt
G1 X208.427 Y47.491 E0.03899 ; skirt
G1 X209.525 Y48.083 E0.03911 ; skirt
G1 X210.458 Y48.850 E0.03788 ; skirt
G1 X211.247 Y49.802 E0.03876 ; skirt
G1 X211.840 Y50.892 E0.03893 ; skirt
G1 X212.209 Y52.075 E0.03885 ; skirt
G1 X212.340 Y53.293 E0.03840 ; skirt
G1 X212.341 Y156.686 E3.24181 ; skirt
G1 X212.203 Y157.955 E0.04003 ; skirt
G1 X211.752 Y159.294 E0.04430 ; skirt
G1 X211.252 Y160.191 E0.03220 ; skirt
G1 X210.616 Y160.979 E0.03173 ; skirt
G1 X209.597 Y161.866 E0.04235 ; skirt
G1 X208.244 Y162.573 E0.04789 ; skirt
G1 X207.219 Y162.878 E0.03352 ; skirt
G1 X205.989 Y163.001 E0.03876 ; skirt
G1 X51.552 Y163.002 E4.84227 ; skirt
G1 X50.282 Y162.792 E0.04039 ; skirt
G1 X49.770 Y162.619 E0.01692 ; skirt
G1 X48.708 Y161.931 E0.03968 ; skirt
G1 X48.228 Y161.440 E0.02154 ; skirt
G1 X47.483 Y160.212 E0.04503 ; skirt
G1 X37.878 Y132.898 E0.90783 ; skirt
G1 X37.658 Y131.606 E0.04107 ; skirt
G1 X37.660 Y116.414 E0.47636 ; skirt
G1 X52.165 Y50.061 E2.12957 ; skirt
G1 X52.503 Y49.278 E0.02673 ; skirt
G1 X53.067 Y48.459 E0.03119 ; skirt
G1 X53.515 Y48.037 E0.01929 ; skirt
G1 X54.667 Y47.335 E0.04229 ; skirt
G1 F5760
G1 X56.308 Y46.998 E-0.58046 ; wipe and retract
G1 F5760
G1 X56.827 Y46.998 E-0.17954 ; wipe and retract
G1 E-0.04000 F2100.00000 ; retract
G1 Z0.800 F7200.000 ; lift Z
G1 X55.314 Y57.165 F7200.000 ; move to first perimeter point
G1 Z0.200 F7200.000 ; restore layer Z
G1 E0.80000 F2100.00000 ; unretract
G1 F1800
G1 X202.175 Y57.165 E4.60472 ; perimeter
G1 X202.175 Y152.835 E2.99967 ; perimeter
G1 X202.098 Y152.835 E0.00241 ; perimeter
G1 X202.098 Y154.738 E0.05967 ; perimeter
G1 X164.672 Y154.738 E1.17347 ; perimeter
G1 X164.672 Y152.835 E0.05967 ; perimeter
G1 X50.550 Y152.835 E3.57822 ; perimeter
G1 X50.550 Y135.596 E0.54052 ; perimeter
G1 X50.311 Y134.413 E0.03785 ; perimeter
G1 X49.672 Y133.464 E0.03587 ; perimeter
G1 X48.723 Y132.825 E0.03587 ; perimeter
G1 X47.539 Y132.585 E0.03789 ; perimeter
G1 X41.993 Y132.585 E0.17388 ; perimeter
G1 X41.308 Y132.302 E0.02324 ; perimeter
G1 X41.025 Y131.617 E0.02324 ; perimeter
G1 X41.025 Y116.483 E0.47450 ; perimeter
G1 X41.308 Y115.798 E0.02324 ; perimeter
G1 X41.993 Y115.515 E0.02324 ; perimeter
G1 X42.777 Y115.515 E0.02457 ; perimeter
G1 X43.960 Y115.276 E0.03785 ; perimeter
G1 X44.909 Y114.637 E0.03587 ; perimeter
G1 X45.548 Y113.688 E0.03587 ; perimeter
G1 X45.787 Y112.504 E0.03788 ; perimeter
G1 X45.787 Y97.433 E0.47254 ; perimeter
G1 X46.071 Y96.748 E0.02325 ; perimeter
G1 X46.756 Y96.465 E0.02324 ; perimeter
G1 X52.301 Y96.465 E0.17385 ; perimeter
G1 X53.484 Y96.225 E0.03785 ; perimeter
G1 X54.433 Y95.586 E0.03587 ; perimeter
G1 X55.074 Y94.637 E0.03589 ; perimeter
G1 X55.313 Y93.454 E0.03785 ; perimeter
G1 X55.314 Y57.225 E1.13593 ; perimeter
G1 X55.315 Y56.765 F7200.000 ; move inwards before travel
G1 F5760
G1 X57.508 Y57.224 E-0.76000 ; wipe and retract
G1 E-0.04000 F2100.00000 ; retract
G1 Z0.800 F7200.000 ; lift Z
G1 X46.637 Y96.106 F7200.000 ; move to first perimeter point
G1 Z0.200 F7200.000 ; restore layer Z
G1 E0.80000 F2100.00000 ; unretract
G1 F1800
G1 X45.938 Y96.395 E0.02372 ; perimeter
G1 X46.250 Y96.184 E0.01182 ; perimeter
G1 X46.578 Y96.118 E0.01048 ; perimeter
G1 X45.719 Y96.614 F7200.000 ; move to first perimeter point
G1 F1800
G1 X45.430 Y97.309 E0.02357 ; perimeter
G1 X45.507 Y96.927 E0.01220 ; perimeter
G1 X45.685 Y96.664 E0.00996 ; perimeter
G1 X45.410 Y97.410 F7200.000 ; move to first perimeter point
G1 F1800
G1 X45.410 Y112.466 E0.47208 ; perimeter
G1 X45.194 Y113.540 E0.03434 ; perimeter
G1 X44.637 Y114.365 E0.03121 ; perimeter
G1 X43.812 Y114.922 E0.03121 ; perimeter
G1 X42.739 Y115.138 E0.03431 ; perimeter
G1 X41.962 Y115.138 E0.02438 ; perimeter
G1 X42.094 Y115.111 E0.00423 ; perimeter
G1 X42.857 Y115.111 E0.02391 ; perimeter
G1 X43.807 Y114.919 E0.03039 ; perimeter
G1 X44.635 Y114.362 E0.03129 ; perimeter
G1 X45.193 Y113.534 E0.03132 ; perimeter
G1 X45.385 Y112.584 E0.03040 ; perimeter
G1 X45.385 Y97.534 E0.47188 ; perimeter
G1 X45.398 Y97.469 E0.00206 ; perimeter
G1 F5760
G1 X45.400 Y99.663 E-0.76000 ; wipe and retract
G1 E-0.04000 F2100.00000 ; retract
G1 Z0.800 F7200.000 ; lift Z
G1 X41.877 Y115.155 F7200.000 ; move to first perimeter point
G1 Z0.200 F7200.000 ; restore layer Z
G1 E0.80000 F2100.00000 ; unretract
G1 F1800
G1 X41.173 Y115.446 E0.02386 ; perimeter
G1 X41.488 Y115.234 E0.01190 ; perimeter
G1 X41.818 Y115.167 E0.01055 ; perimeter
G1 X40.956 Y115.663 F7200.000 ; move to first perimeter point
G1 F1800
G1 X40.666 Y116.364 E0.02379 ; perimeter
G1 X40.744 Y115.977 E0.01239 ; perimeter
G1 X40.923 Y115.713 E0.00999 ; perimeter
G1 X40.648 Y116.455 F7200.000 ; move to first perimeter point
G1 F1800
G1 X40.648 Y131.644 E0.47627 ; perimeter
G1 X40.622 Y131.516 E0.00410 ; perimeter
G1 X40.622 Y116.583 E0.46824 ; perimeter
G1 X40.636 Y116.513 E0.00221 ; perimeter
G1 F5760
G1 X40.638 Y118.708 E-0.76000 ; wipe and retract
G1 E-0.04000 F2100.00000 ; retract
G1 Z0.800 F7200.000 ; lift Z
G1 X40.667 Y131.737 F7200.000 ; move to first perimeter point
G1 Z0.200 F7200.000 ; restore layer Z
G1 E0.80000 F2100.00000 ; unretract
G1 F1800
G1 X40.955 Y132.434 E0.02367 ; perimeter
G1 X40.744 Y132.122 E0.01181 ; perimeter
G1 X40.678 Y131.795 E0.01045 ; perimeter
G1 X41.176 Y132.655 F7200.000 ; move to first perimeter point
G1 F1800
G1 X41.873 Y132.943 E0.02367 ; perimeter
G1 X41.488 Y132.866 E0.01233 ; perimeter
G1 X41.225 Y132.689 E0.00993 ; perimeter
G1 F5760
G1 X41.873 Y132.943 E-0.24119 ; wipe and retract
G1 F5760
G1 X41.488 Y132.866 E-0.13617 ; wipe and retract
G1 F5760
G1 X41.225 Y132.689 E-0.10972 ; wipe and retract
G1 E-0.31292 F2100.00000 ; retract
G1 Z0.800 F7200.000 ; lift Z
G1 X52.687 Y154.552 F7200.000 ; move to first perimeter point
G1 Z0.200 F7200.000 ; restore layer Z
G1 E0.80000 F2100.00000 ; unretract
G1 F1800
G1 X53.560 Y154.376 E0.02792 ; perimeter
G1 X54.434 Y154.552 E0.02795 ; perimeter
G1 X55.150 Y155.035 E0.02709 ; perimeter
G1 X55.633 Y155.751 E0.02709 ; perimeter
G1 X55.809 Y156.625 E0.02795 ; perimeter
G1 X55.633 Y157.498 E0.02792 ; perimeter
G1 X55.150 Y158.214 E0.02708 ; perimeter
G1 X54.434 Y158.697 E0.02707 ; perimeter
G1 X53.560 Y158.874 E0.02797 ; perimeter
G1 X52.687 Y158.697 E0.02794 ; perimeter
G1 X51.971 Y158.214 E0.02707 ; perimeter
G1 X51.488 Y157.498 E0.02707 ; perimeter
G1 X51.311 Y156.625 E0.02794 ; perimeter
G1 X51.488 Y155.751 E0.02797 ; perimeter
G1 X51.971 Y155.035 E0.02707 ; perimeter
G1 X52.637 Y154.585 E0.02520 ; perimeter
G1 X52.835 Y154.906 F7200.000 ; move to first perimeter point
G1 F1800
G1 X53.560 Y154.761 E0.02317 ; perimeter
G1 X54.286 Y154.906 E0.02321 ; perimeter
G1 X54.878 Y155.307 E0.02242 ; perimeter
G1 X55.279 Y155.899 E0.02242 ; perimeter
G1 X55.424 Y156.625 E0.02321 ; perimeter
G1 X55.279 Y157.350 E0.02317 ; perimeter
G1 X54.878 Y157.942 E0.02242 ; perimeter
G1 X54.286 Y158.343 E0.02242 ; perimeter
G1 X53.560 Y158.489 E0.02322 ; perimeter
G1 X52.835 Y158.343 E0.02319 ; perimeter
G1 X52.243 Y157.942 E0.02242 ; perimeter
G1 X51.843 Y157.350 E0.02242 ; perimeter
G1 X51.696 Y156.625 E0.02319 ; perimeter
G1 X51.842 Y155.899 E0.02322 ; perimeter
G1 X52.243 Y155.307 E0.02242 ; perimeter
G1 X52.786 Y154.940 E0.02054 ; perimeter
G1 X52.887 Y154.510 F7200.000 ; move inwards before travel
G1 F5760
G1 X53.560 Y154.761 E-0.27528 ; wipe and retract
G1 F5760
G1 X54.286 Y154.906 E-0.25634 ; wipe and retract
G1 F5760
G1 X54.832 Y155.276 E-0.22837 ; wipe and retract
G1 E-0.04000 F2100.00000 ; retract
G1 Z0.800 F7200.000 ; lift Z
G1 X127.214 Y156.625 F7200.000 ; move to first perimeter point
G1 Z0.200 F7200.000 ; restore layer Z
G1 E0.80000 F2100.00000 ; unretract
G1 F1800
G1 X127.390 Y155.752 E0.02792 ; perimeter
G1 X127.873 Y155.036 E0.02709 ; perimeter
G1 X128.590 Y154.553 E0.02709 ; perimeter
G1 X129.463 Y154.376 E0.02793 ; perimeter
G1 X130.336 Y154.553 E0.02794 ; perimeter
G1 X131.052 Y155.036 E0.02707 ; perimeter
G1 X131.535 Y155.752 E0.02707 ; perimeter
G1 X131.712 Y156.625 E0.02794 ; perimeter
G1 X131.535 Y157.499 E0.02797 ; perimeter
G1 X131.052 Y158.215 E0.02707 ; perimeter
G1 X130.336 Y158.698 E0.02708 ; perimeter
G1 X129.463 Y158.874 E0.02792 ; perimeter
G1 X128.590 Y158.698 E0.02791 ; perimeter
G1 X127.873 Y158.215 E0.02711 ; perimeter
G1 X127.390 Y157.499 E0.02709 ; perimeter
G1 X127.226 Y156.684 E0.02607 ; perimeter
G1 X127.599 Y156.625 F7200.000 ; move to first perimeter point
G1 F1800
G1 X127.744 Y155.900 E0.02317 ; perimeter
G1 X128.145 Y155.308 E0.02243 ; perimeter
G1 X128.738 Y154.907 E0.02244 ; perimeter
G1 X129.463 Y154.761 E0.02318 ; perimeter
G1 X130.188 Y154.907 E0.02319 ; perimeter
G1 X130.780 Y155.308 E0.02242 ; perimeter
G1 X131.181 Y155.900 E0.02242 ; perimeter
G1 X131.327 Y156.625 E0.02319 ; perimeter
G1 X131.181 Y157.351 E0.02322 ; perimeter
G1 X130.780 Y157.943 E0.02242 ; perimeter
G1 X130.188 Y158.344 E0.02242 ; perimeter
G1 X129.463 Y158.489 E0.02318 ; perimeter
G1 X128.738 Y158.344 E0.02317 ; perimeter
G1 X128.145 Y157.943 E0.02245 ; perimeter
G1 X127.744 Y157.351 E0.02243 ; perimeter
G1 X127.611 Y156.684 E0.02133 ; perimeter
G1 X127.253 Y156.425 F7200.000 ; move inwards before travel
G1 F5760
G1 X127.744 Y155.900 E-0.27528 ; wipe and retract
G1 F5760
G1 X128.145 Y155.308 E-0.24773 ; wipe and retract
G1 F5760
G1 X128.712 Y154.925 E-0.23699 ; wipe and retract
G1 E-0.04000 F2100.00000 ; retract
G1 Z0.800 F7200.000 ; lift Z
G1 X203.116 Y156.025 F7200.000 ; move to first perimeter point
G1 Z0.200 F7200.000 ; restore layer Z
G1 E0.80000 F2100.00000 ; unretract
G1 F1800
G1 X203.292 Y155.152 E0.02791 ; perimeter
G1 X203.775 Y154.435 E0.02713 ; perimeter
G1 X204.492 Y153.953 E0.02709 ; perimeter
G1 X205.365 Y153.776 E0.02792 ; perimeter
G1 X206.238 Y153.953 E0.02793 ; perimeter
G1 X206.954 Y154.435 E0.02706 ; perimeter
G1 X207.437 Y155.152 E0.02711 ; perimeter
G1 X207.614 Y156.025 E0.02794 ; perimeter
G1 X207.437 Y156.898 E0.02793 ; perimeter
G1 X206.954 Y157.615 E0.02711 ; perimeter
G1 X206.238 Y158.097 E0.02706 ; perimeter
G1 X205.365 Y158.274 E0.02793 ; perimeter
G1 X204.492 Y158.097 E0.02792 ; perimeter
G1 X203.775 Y157.615 E0.02709 ; perimeter
G1 X203.292 Y156.898 E0.02713 ; perimeter
G1 X203.128 Y156.084 E0.02603 ; perimeter
G1 X203.501 Y156.025 F7200.000 ; move to first perimeter point
G1 F1800
G1 X203.646 Y155.300 E0.02317 ; perimeter
G1 X204.047 Y154.707 E0.02246 ; perimeter
G1 X204.640 Y154.307 E0.02243 ; perimeter
G1 X205.365 Y154.161 E0.02318 ; perimeter
G1 X206.090 Y154.307 E0.02318 ; perimeter
G1 X206.682 Y154.707 E0.02240 ; perimeter
G1 X207.083 Y155.300 E0.02245 ; perimeter
G1 X207.229 Y156.025 E0.02318 ; perimeter
G1 X207.083 Y156.750 E0.02318 ; perimeter
G1 X206.682 Y157.343 E0.02245 ; perimeter
G1 X206.090 Y157.743 E0.02240 ; perimeter
G1 X205.365 Y157.889 E0.02318 ; perimeter
G1 X204.640 Y157.743 E0.02318 ; perimeter
G1 X204.047 Y157.343 E0.02243 ; perimeter
G1 X203.646 Y156.750 E0.02246 ; perimeter
G1 X203.513 Y156.084 E0.02129 ; perimeter
G1 X203.155 Y155.825 F7200.000 ; move inwards before travel
G1 F5760
G1 X203.646 Y155.300 E-0.27526 ; wipe and retract
G1 F5760
G1 X204.047 Y154.707 E-0.24807 ; wipe and retract
G1 F5760
G1 X204.614 Y154.325 E-0.23667 ; wipe and retract
G1 E-0.04000 F2100.00000 ; retract
G1 Z0.800 F7200.000 ; lift Z
G1 X205.965 Y107.249 F7200.000 ; move to first perimeter point
G1 Z0.200 F7200.000 ; restore layer Z
G1 E0.80000 F2100.00000 ; unretract
G1 F1800
G1 X205.092 Y107.072 E0.02792 ; perimeter
G1 X204.375 Y106.590 E0.02710 ; perimeter
G1 X203.893 Y105.873 E0.02710 ; perimeter
G1 X203.716 Y105.000 E0.02792 ; perimeter
G1 X203.893 Y104.127 E0.02792 ; perimeter
G1 X204.375 Y103.410 E0.02710 ; perimeter
G1 X205.092 Y102.928 E0.02710 ; perimeter
G1 X205.965 Y102.751 E0.02792 ; perimeter
G1 X206.838 Y102.928 E0.02792 ; perimeter
G1 X207.555 Y103.410 E0.02710 ; perimeter
G1 X208.037 Y104.127 E0.02710 ; perimeter
G1 X208.214 Y105.000 E0.02792 ; perimeter
G1 X208.037 Y105.873 E0.02792 ; perimeter
G1 X207.555 Y106.590 E0.02710 ; perimeter
G1 X206.838 Y107.072 E0.02710 ; perimeter
G1 X206.024 Y107.237 E0.02604 ; perimeter
G1 X205.965 Y106.864 F7200.000 ; move to first perimeter point
G1 F1800
G1 X205.240 Y106.718 E0.02318 ; perimeter
G1 X204.647 Y106.318 E0.02243 ; perimeter
G1 X204.247 Y105.725 E0.02243 ; perimeter
G1 X204.101 Y105.000 E0.02318 ; perimeter
G1 X204.247 Y104.275 E0.02318 ; perimeter
G1 X204.647 Y103.682 E0.02243 ; perimeter
G1 X205.240 Y103.282 E0.02243 ; perimeter
G1 X205.965 Y103.136 E0.02318 ; perimeter
G1 X206.690 Y103.282 E0.02318 ; perimeter
G1 X207.283 Y103.682 E0.02243 ; perimeter
G1 X207.683 Y104.275 E0.02243 ; perimeter
G1 X207.829 Y105.000 E0.02318 ; perimeter
G1 X207.683 Y105.725 E0.02318 ; perimeter
G1 X207.283 Y106.318 E0.02243 ; perimeter
G1 X206.690 Y106.718 E0.02243 ; perimeter
G1 X206.024 Y106.852 E0.02130 ; perimeter
G1 X205.764 Y107.210 F7200.000 ; move inwards before travel
G1 F5760
G1 X205.240 Y106.718 E-0.27531 ; wipe and retract
G1 F5760
G1 X204.647 Y106.318 E-0.24781 ; wipe and retract
G1 F5760
G1 X204.265 Y105.751 E-0.23688 ; wipe and retract
G1 E-0.04000 F2100.00000 ; retract
G1 Z0.800 F7200.000 ; lift Z
G1 X205.365 Y56.224 F7200.000 ; move to first perimeter point
G1 Z0.200 F7200.000 ; restore layer Z
G1 E0.80000 F2100.00000 ; unretract
G1 F1800
G1 X204.492 Y56.047 E0.02793 ; perimeter
G1 X203.775 Y55.564 E0.02709 ; perimeter
G1 X203.292 Y54.848 E0.02709 ; perimeter
G1 X203.116 Y53.975 E0.02792 ; perimeter
G1 X203.292 Y53.102 E0.02791 ; perimeter
G1 X203.775 Y52.385 E0.02712 ; perimeter
G1 X204.492 Y51.902 E0.02712 ; perimeter
G1 X205.365 Y51.726 E0.02791 ; perimeter
G1 X206.238 Y51.902 E0.02792 ; perimeter
G1 X206.954 Y52.385 E0.02709 ; perimeter
G1 X207.437 Y53.102 E0.02709 ; perimeter
G1 X207.614 Y53.975 E0.02793 ; perimeter
G1 X207.437 Y54.848 E0.02794 ; perimeter
G1 X206.954 Y55.564 E0.02707 ; perimeter
G1 X206.238 Y56.047 E0.02707 ; perimeter
G1 X205.424 Y56.212 E0.02606 ; perimeter
G1 X205.365 Y55.839 F7200.000 ; move to first perimeter point
G1 F1800
G1 X204.640 Y55.693 E0.02318 ; perimeter
G1 X204.047 Y55.292 E0.02244 ; perimeter
G1 X203.646 Y54.700 E0.02243 ; perimeter
G1 X203.501 Y53.975 E0.02318 ; perimeter
G1 X203.646 Y53.250 E0.02317 ; perimeter
G1 X204.047 Y52.657 E0.02245 ; perimeter
G1 X204.640 Y52.256 E0.02245 ; perimeter
G1 X205.365 Y52.111 E0.02317 ; perimeter
G1 X206.090 Y52.256 E0.02318 ; perimeter
G1 X206.682 Y52.657 E0.02243 ; perimeter
